X: 735
T: Ey Şehenşâh-ı
C: Sadullah Ağa
O: Turkey
F: http://compmusic.upf.edu/node/140
N: hicazkar--beste--devrikebir--ey_sehensah-i--sadullah_aga
N: makam= hicazkar
N: form= beste
N: usul= devrikebir = 28/4
M: 28/4
L: 1/16
K: C _1/4B _7/8e _7/8A ^f
Q: 1/4=81
%%MIDI tuningsystem comma53
g4 f2g2 g6gf  | =aggf g2a2 a4 g2a2  | \
w:   |   | 
g4 f4 gfef e2f2  | 
w:   | 
gfed dccB c4 d2e2  | f4 g4 z2=a4ag  | \
w:   |   | 
g3f f3e e6d2  | 
w:   | 
d2f4ed d8  | z4 d2f2 e4 f4  | z2g4=a2 g3f e2g2  | \
w:   |   |   | 
f3e d2f2 z2e4ed  | 
w:   | 
dccB c4 z4 B2c2  | d4 e2d2 z2c'4c'_b  | \
w:   |   | 
c'_bb=a aggf f3g feed  | 
w:   | 
d6=f2 _1/4e2f2 g4  | g2z2 =f2g2 f2g2 f2_1/4e2  | \
w:   |   | 
g=ff_1/4e f4 f4 fgf_e  | 
w:   | 
_e8 d2a2 g2f2  | feed dccB c4 d2e2  | \
w:   |   | 
f4 g4 z2e4ed  | 
w:   | 
d2c4cB B3A BAAG  | G6de dcBA G4  | G2z2 G2B2 A4 c4  | 
w:   |   |   | 
z2c4d2 e4 efed  | dccB c4 z4 B2c2  | \
w:   |   | 
d2_1/4e2 =f4 f3_e e3d  | 
w:   | 
d3c z4 BcBA G4  | Bcd2 z2B4A2 GABc  | \
w:   |   | 
BAAG G6d2 e2f2  | 
w:   | 
g4 g4 f2g2 g6gf =aggf g2a2 a4  | g2=a2 g4 f4 gfef  | 
w:   |   | 
e2f2 gfed dccB c4  | d2e2 f4 g4 z2=a4ag g3f f3e e6d2 d2f4ed d8 z4 d2f2 e4  | 
w:   |   | 
f4 z2g4=a2 g3f  | e2g2 f3e d2f2 z2e4ed dccB c4 z4  | 
w:   |   | 
B2c2 d4 e2d2 z2c'4c'_b c'bb=a aggf f3g  | \
w:   | 
feed d6=f2 _1/4e2f2  | 
w:   | 
g4 g2z2 =f2g2 f2g2  | =f2_1/4e2 gffe f4 f4  | \
w:   |   | 
=fgf_e e8 d2a2  | 
w:   | 
g2f2 feed dccB c4  | d2e2 f4 g4 z2e4ed d2c4cB B3A  | 
w:   |   | 
BAAG G6de dcBA  | G4 G2z2 G2B2 A4  | \
w:   |   | 
c4 z2c4d2 e4  | 
w:   | 
efed dccB c4 z4  | B2c2 d2_1/4e2 =f4 f3_e  | \
w:   |   | 
_e3d d3c z4 BcBA  | 
w:   | 
G4 Bcd2 z2B4A2  | GABc BAAG G6d2  | ^c2e2 d4 d2z2 d2e2  | 
w:   |   |   | 
d4 ^c4 feed d4  | z4 c2d2 c4 _e4  | d3c c_BB=A AGGF G4  | 
w:   |   |   | 
z4 =A2_B2 c4 d4  | z2_e2 d2c2 c2_B4B=A  | \
w:   |   | 
G3=A _BcBA A3G FGAF  | 
w:   | 
G8 z4 G2=A2  | G4 =A4 z2_B2 A2B2  | ^c2d4c2 _B2=A2 B2c2  | \
w:   |   |   | 
d2e4d2 fed^c d4  | 
w:   | 
z4 d2f2 e4 d2^c2  | d4 c'4 c'_bb=a aggf  | \
w:   |   | 
f3g feed d6=f2  | 
w:   | 
_1/4e2=f2 g4 g2z2 f2g2  | =f2g2 f2_1/4e2 gffe f4  | \
w:   |   | 
=f4 fgf_e e8  | 
w:   | 
d2a2 g2f2 feed dccB  | c4 d2e2 f4 g4  | \
w:   |   | 
z2e4ed d2c4cB  | 
w:   | 
B3A BAAG G6de  | dcBA G4 G2z2 G2B2  | \
w:   |   | 
A4 c4 z2c4d2  | 
w:   | 
e4 efed dccB c4  | z4 B2c2 d2_1/4e2 =f4  | \
w:   |   | 
=f3_e e3d d3c BcBA  | 
w:   | 
G4 Bcd2 z2B4A2  | GABc BAAG G6d2  | e2f2 g4 g4 f2g2  | 
w:   |   |   | 
g6gf =aggf g2a2  | =a4 g2a2 g4 f4  | \
w:   |   | 
gfef e2f2 gfed dccB  | 
w:   | 
c4 d2e2 f4 g4  | z2=a4ag g3f f3e  | e6d2 d2f4ed  | \
w:   |   |   | 
d8 z4 d2f2  | 
w:   | 
e4 f4 z2g4=a2  | g3f e2g2 f3e d2f2  | \
w:   |   | 
z2e4ed dccB c4  | 
w:   | 
z4 B2c2 d4 e2d2  | z2c'4c'_b c'bb=a aggf  | \
w:   |   | 
f3g feed d6=f2  | 
w:   | 
_1/4e2=f2 g4 g2z2 f2g2  | =f2g2 f2_1/4e2 gffe f4  | \
w:   |   | 
=f4 fgf_e e8  | 
w:   | 
d2a2 g2f2 feed dccB  | c4 d2e2 f4 g4  | \
w:   |   | 
z2e4ed d2c4cB  | 
w:   | 
B3A BAAG G6de  | dcBA G4 G2z2 G2B2  | \
w:   |   | 
A4 c4 z2c4d2  | 
w:   | 
e4 efed dccB c4  | z4 B2c2 d2_1/4e2 =f4  | \
w:   |   | 
=f3_e e3d d3c z4  | 
w:   | 
BcBA G4 Bcd2 z2B4A2 GABc BAAG G6d2 e2f2 g4 g4  | 
w:   | 
f2g2 g6gf =aggf  | g2=a2 a4 g2a2 g4  | \
w:   |   | 
f4 gfef e2f2 gfed  | 
w:   | 
dccB c4 d2e2 f4  | g4 z2=a4ag g3f  | \
w:   |   | 
f3e e6d2 d2f4ed d8 z4  | 
w:   | 
d2f2 e4 f4 z2g4=a2 g3f e2g2 f3e  | \
w:   | 
d2f2 z2e4ed dccB  | 
w:   | 
c4 z4 B2c2 d4  | e2d2 z2c'4c'_b c'bb=a  | \
w:   |   | 
=aggf f3g feed d6=f2 _1/4e2f2 g4 g2z2  | 
w:   | 
=f2g2 f2g2 f2_1/4e2 gffe  | =f4 f4 fgf_e e8 d2a2 g2^f2 f_7/8eed  | 
w:   |   | 
dccB c4 d2e2 f4  | g4 z2e4ed d2c4cB B3A BAAG G6de dcBA G4 G2z2  | 
w:   |   | 
G2B2 A4 c4 z2c4d2 e4 efed dccB  | \
w:   | 
c4 z4 B2c2 d2_1/4e2  | 
w:   | 
=f4 f3_e e3d d3c  | z4 BcBA G4 Bcd2  | \
w:   |   | 
z2B4A2 GABc BAAG  | 
w:   | 
G6d2 ^c2e2 d4  | d2z2 d2e2 d4 ^c4  | \
w:   |   | 
feed d4 z4 c2d2  | c4 _e4 d3c c_BB=A  | 
w:   |   | 
=AGGF G4 z4 A2_B2  | c4 d4 z2_e2 d2c2  | \
w:   |   | 
c2_B4B=A G3A BcBA  | 
w:   | 
=A3G FGAF G8  | z4 G2=A2 G4 A4  | z2_B2 =A2B2 ^c2d4c2  | \
w:   |   |   | 
_B2=A2 B2^c2 d2e4d2  | 
w:   | 
fed^c d4 z4 d2f2  | e4 d2^c2 d4 c'4  | \
w:   |   | 
c'_bb=a aggf f3g feed  | 
w:   | 
d6=f2 _1/4e2f2 g4  | g2z2 =f2g2 f2g2 f2_1/4e2  | \
w:   |   | 
g=ff_1/4e f4 f4 fgf_e  | 
w:   | 
_e8 d2a2 g2f2  | feed dccB c4 d2e2  | \
w:   |   | 
f4 g4 z2e4ed  | 
w:   | 
d2c4cB B3A BAAG  | G6de dcBA G4  | G2z2 G2B2 A4 c4  | 
w:   |   |   | 
z2c4d2 e4 efed  | dccB c4 z4 B2c2  | \
w:   |   | 
d2_1/4e2 =f4 f3_e e3d  | 
w:   | 
d3c BcBA G4 Bcd2  | z2B4A2 GABc BAAG  | 
w:   |   | 
G6d2 e2f2 g4  | G8 G4 z4  | |


